src/assets/images/theme-switcher.svg

<svg fill="none" height="24" viewBox="0 0 24 24" width="24" xmlns="http://www.w3.org/2000/svg"><path d="m6.76 4.84-1.8-1.79-1.41 1.41 1.79 1.79zm-2.76 5.66h-3v2h3zm9-9.949997h-2v2.949997h2zm7.45 3.909997-1.41-1.41-1.79 1.79 1.41 1.41zm-3.21 13.7 1.79 1.8 1.41-1.41-1.8-1.79zm2.76-7.66v2h3v-2zm-8-5c-3.31 0-6 2.69-6 6s2.69 6 6 6 6-2.69 6-6-2.69-6-6-6zm-1 16.95h2v-2.95h-2zm-7.45-3.91 1.41 1.41 1.79-1.8-1.41-1.41z" fill="#364f6b"/></svg>

<svg width="24" height="24" viewBox="0 0 24 24" fill="none"
  xmlns="http://www.w3.org/2000/svg">
  <path class="color" d="M6.76 4.84L4.96 3.05L3.55 4.46L5.34 6.25L6.76 4.84ZM4 10.5H1V12.5H4V10.5ZM13 0.550003H11V3.5H13V0.550003ZM20.45 4.46L19.04 3.05L17.25 4.84L18.66 6.25L20.45 4.46ZM17.24 18.16L19.03 19.96L20.44 18.55L18.64 16.76L17.24 18.16ZM20 10.5V12.5H23V10.5H20ZM12 5.5C8.69 5.5 6 8.19 6 11.5C6 14.81 8.69 17.5 12 17.5C15.31 17.5 18 14.81 18 11.5C18 8.19 15.31 5.5 12 5.5ZM11 22.45H13V19.5H11V22.45ZM3.55 18.54L4.96 19.95L6.75 18.15L5.34 16.74L3.55 18.54Z" fill="#364F6B"/>
</svg>
